icons/calendar-star-outline.svg

<svg xmlns="http://www.w3.org/2000/svg" width="24" height="24" viewBox="0 0 24 24">
  <path d="M16,1 C16.5128358,1 16.9355072,1.38604019 16.9932723,1.88337887 L17,2 L17,3 L18,3 C20.1421954,3 21.8910789,4.68396847 21.9951047,6.80035966 L22,7 L22,19 C22,21.1421954 20.3160315,22.8910789 18.1996403,22.9951047 L18,23 L6,23 C3.85780461,23 2.10892112,21.3160315 2.00489531,19.1996403 L2,19 L2,7 C2,4.85780461 3.68396847,3.10892112 5.80035966,3.00489531 L6,3 L7,3 L7,2 C7,1.44771525 7.44771525,1 8,1 C8.51283584,1 8.93550716,1.38604019 8.99327227,1.88337887 L9,2 L9,3 L15,3 L15,2 C15,1.44771525 15.4477153,1 16,1 Z M20,11 L4,11 L4,19 C4,20.0543618 4.81587779,20.9181651 5.85073766,20.9945143 L6,21 L18,21 C19.0543618,21 19.9181651,20.1841222 19.9945143,19.1492623 L20,19 L20,11 Z M12.2212829,12.6814077 C12.3198892,12.7300728 12.3997029,12.8098866 12.448368,12.9084929 L13.3225168,14.6797118 L15.2771729,14.9637399 C15.5504453,15.0034487 15.7397861,15.2571702 15.7000773,15.5304426 C15.684265,15.6392611 15.6330214,15.7398323 15.5542796,15.8165866 L14.1398772,17.1952882 L14.4737723,19.1420462 C14.5204528,19.4142144 14.3376589,19.6726924 14.0654907,19.7193729 C13.9571118,19.7379613 13.8456278,19.720304 13.7482976,19.6691344 L12,18.75 L10.2517024,19.6691344 C10.0072801,19.7976348 9.70496657,19.7036616 9.57646617,19.4592393 C9.52529663,19.361909 9.50763929,19.250425 9.52622772,19.1420462 L9.86012284,17.1952882 L8.4457204,15.8165866 C8.24797861,15.623836 8.24393246,15.3072794 8.43668307,15.1095376 C8.51343737,15.0307958 8.61400857,14.9795522 8.72282709,14.9637399 L10.6774832,14.6797118 L11.551632,12.9084929 C11.6738431,12.660866 11.973656,12.5591965 12.2212829,12.6814077 Z M7,5 L6,5 C4.9456382,5 4.08183488,5.81587779 4.00548574,6.85073766 L4,7 L4,9 L20,9 L20,7 C20,5.9456382 19.1841222,5.08183488 18.1492623,5.00548574 L18,5 L17,5 L17,6 C17,6.55228475 16.5522847,7 16,7 C15.4871642,7 15.0644928,6.61395981 15.0067277,6.11662113 L15,6 L15,5 L9,5 L9,6 C9,6.55228475 8.55228475,7 8,7 C7.48716416,7 7.06449284,6.61395981 7.00672773,6.11662113 L7,6 L7,5 Z"/>
</svg>

<svg xmlns="http://www.w3.org/2000/svg" viewBox="0 0 24 24">
  <path d="M16 1a1 1 0 0 1 1 .88V3h1a4 4 0 0 1 4 3.8V19a4 4 0 0 1-3.8 4H6a4 4 0 0 1-4-3.8V7a4 4 0 0 1 3.8-4H7V2a1 1 0 0 1 2-.12V3h6V2a1 1 0 0 1 1-1zm4 10H4v8a2 2 0 0 0 1.85 2H18a2 2 0 0 0 2-1.85V11zm-7.78 1.68c.1.05.18.13.23.23l.87 1.77 1.96.28a.5.5 0 0 1 .27.86l-1.41 1.38.33 1.94a.5.5 0 0 1-.72.53L12 18.75l-1.75.92a.5.5 0 0 1-.72-.53l.33-1.94-1.41-1.38a.5.5 0 0 1 .27-.86l1.96-.28.87-1.77a.5.5 0 0 1 .67-.23zM7 5H6a2 2 0 0 0-2 1.85V9h16V7a2 2 0 0 0-1.85-2H17v1a1 1 0 0 1-2 .12V5H9v1a1 1 0 0 1-2 .12V5z"/>
</svg>
